src/oreo_spark_green_cursors/alias.svg

<svg xmlns="http://www.w3.org/2000/svg" id="svg2" width="32" height="32" version="1.1">
 <defs id="defs6">
  <filter id="filter1153" style="color-interpolation-filters:sRGB" width="1.226" height="1.167" x="-.11" y="-.08">
   <feGaussianBlur id="feGaussianBlur1155" stdDeviation=".94"/>
  </filter>
 </defs>
 <path id="path1103" style="opacity:0.3;fill:#000000;fill-opacity:1;stroke-width:0.61431861;filter:url(#filter1153)" d="M 9.2089844,2.5058594 C 6.7175742,2.3374628 6.1004314,5.5847506 6.0175781,13.791016 L 6,19.5 c 0,5.522847 4.477153,10 10,10 5.522847,0 10,-4.477153 10,-10 0.0027,-0.234951 -0.01749,-0.487135 -0.02539,-0.707031 l -0.002,-0.01172 C 25.701658,14.252327 22.219888,10.213245 13.892578,4.7089844 11.860448,3.3657697 10.341444,2.5824033 9.2089844,2.5058594 Z"/>
 <path id="path834" style="fill:#4E9A06;fill-opacity:1;stroke-width:0.61431861" d="M 9.2089844,1.0058594 C 6.7175742,0.83746275 6.1004314,4.0847506 6.0175781,12.291016 L 6,18 c 0,5.522847 4.477153,10 10,10 5.522847,0 10,-4.477153 10,-10 0.0027,-0.234951 -0.01749,-0.487135 -0.02539,-0.707031 l -0.002,-0.01172 C 25.701658,12.752327 22.219888,8.7132453 13.892578,3.2089844 11.860448,1.8657697 10.341444,1.0824033 9.2089844,1.0058594 Z"/>
 <path id="path821" style="opacity:1;fill:#ffffff;fill-opacity:1;stroke:none;stroke-width:4.7328639;stroke-linecap:round;stroke-linejoin:round;stroke-miterlimit:4;stroke-dasharray:none;stroke-opacity:1" d="M 18 14 L 18 16 L 15.5 16 A 3.5 3.5 0 0 0 12 19.5 A 3.5 3.5 0 0 0 15.5 23 A 3.5 3.5 0 0 0 16 22.958984 L 16 20.912109 A 1.5 1.5 0 0 1 15.5 21 A 1.5 1.5 0 0 1 14 19.5 A 1.5 1.5 0 0 1 15.5 18 L 16 18 L 18 18 L 18 20 L 22 17 L 18 14 z"/>
</svg>

<svg xmlns="http://www.w3.org/2000/svg" viewBox="0 0 32 32"><defs><filter id="a" width="1.226" height="1.167" x="-.11" y="-.08" color-interpolation-filters="sRGB"><feGaussianBlur stdDeviation=".94"/></filter></defs><path d="M9.209 2.506C6.718 2.337 6.1 5.585 6.018 13.79L6 19.5c0 5.523 4.477 10 10 10s10-4.477 10-10c.003-.235-.017-.487-.025-.707l-.002-.012c-.271-4.529-3.753-8.568-12.08-14.072-2.033-1.343-3.552-2.127-4.684-2.203z" opacity=".3" filter="url(#a)"/><path d="M9.209 1.006C6.718.837 6.1 4.085 6.018 12.29L6 18c0 5.523 4.477 10 10 10s10-4.477 10-10c.003-.235-.017-.487-.025-.707l-.002-.012c-.271-4.529-3.753-8.568-12.08-14.072-2.033-1.343-3.552-2.127-4.684-2.203z" fill="#4E9A06"/><path d="M18 14v2h-2.5a3.5 3.5 0 00-3.5 3.5 3.5 3.5 0 003.5 3.5 3.5 3.5 0 00.5-.041v-2.047a1.5 1.5 0 01-.5.088 1.5 1.5 0 01-1.5-1.5 1.5 1.5 0 011.5-1.5H18v2l4-3-4-3z" fill="#fff"/></svg>
